X:2592
T:Polska från Uppland
R:Polska
O:Uppland
Z:Nils L
B:http://www.smus.se/earkiv/fmk/browselarge.php?lang=sw&katalogid=Sk+21&bildnr=00021
N:"Spelad av folkskolläraren Joh. Rydberg (1877)"
M:3/4
L:1/16
K:Gm
(BcBA) G2>b2 a2>g2 | g2>f2 d4 B4 | (BcBA) G2>b2 a2>g2 | g2>^f2 d4> c4 | 
(BcBA) G2>b2 a2>g2 | {ga}g2>f2 d4 B4 | (fgfd) (DFBd) f2d2 | cecA B8 ::
B2A2 (EF)Ac (EF)Ac | c2B2 (DF)Bd (DF)Bd | d4 (dc).d.e d2>c2 | {Bc}B2AG ^F2G2 D4 | 
B2A2 (EF)Ac (EF)Ac | c2B2 (DF)Bd (DF)Bd | d4 (dc).d.e d2>c2 | {Bc}B2A^F G8 :| 
(:musicend:)
(:music:)
